!!!!SEGMENT: pl-kk--kk-i-382--093-005_haslinger--msza-offertorium.krn
!!!cenid: 18xx:1601
!!!COM: Haslinger
!!!COM-rismid: pe30052852
!!!CDT:
!!!CNT:
!!!OPR: Msza
!!!OTL: Offertorium
!!!OMV: 005
!!!PDT:
!!!AGN: Sacred; Mass
!!!SMS-siglum: PL-Kk
!!!SMS-shelfmark: Kk.I.382
!!!SMS-shelfwork: 093-005 M
!!!SMS-variant:
!!!SMS-altvar:
!!!NIFC-rismid: 1001142971
!!!URL-scan: http://repozytorium.nifc.pl/skany/pl-kk-nut--i-382
!!!ONB-nifc: S/T1 0060, T2 0133-0134, A/B1 0204, B2 0276-0277. Części Mszy: 1. Kyrie, 2. Gloria, 3. Graduale, 4. Credo, 5. Offertorium, 6. Sanctus, 7. Benedictus, 8. Agnus
!!!key:
**kern	**text	**dynam	**kern	**text	**dynam	**kern	**text	**dynam	**kern	**text	**text	**dynam
*part4	*part4	*part4	*part3	*part3	*part3	*part2	*part2	*part2	*part1	*part1	*part1	*part1
*staff4	*staff4	*	*staff3	*staff3	*	*staff2	*staff2	*	*staff1	*staff1	*staff1	*
*Iempty	*	*	*Iempty	*	*	*Itenor	*	*	*Itenor	*	*	*
*I"Baſso IIdo	*	*	*I"Baſso Imo	*	*	*I"Tenore II	*	*	*I"Tenor I	*	*	*
*I'B II	*	*	*I'B I	*	*	*I'T II	*	*	*I'T I	*	*	*
*	*	*	*	*	*	*ITrd7c12	*	*	*ITrd7c12	*	*	*
*clefF4	*	*	*clefF4	*	*	*clefG2	*	*	*clefG2	*	*	*
*k[b-e-a-]	*	*	*k[b-e-a-]	*	*	*k[b-e-a-]	*	*	*k[b-e-a-]	*	*	*
*E-:	*	*	*E-:	*	*	*E-:	*	*	*E-:	*	*	*
*M4/4	*	*	*M4/4	*	*	*M4/4	*	*	*M4/4	*	*	*
*met(c)	*	*	*met(c)	*	*	*met(c)	*	*	*met(c)	*	*	*
=1	=1	=1	=1	=1	=1	=1	=1	=1	=1	=1	=1	=1
*	*	*	*	*	*	*	*	*	*	*	*	*below
!	!	!	!	!	!	!LO:TX:t=P:problem:brak przenośnika oktawowego przy kluczu	!	!	!LO:TX:t=P:problem:brak przenośnika oktawowego przy kluczu	!	!	!
4r	.	.	4r	.	.	4r	.	.	4r	.	.	.
.	.	f	.	.	f	.	.	f	.	.	.	f
4E-\	Can-	.	4G\	Can-	.	4B-\	Can-	.	4B-\	Can-	.	.
4E-\	-ta-	.	4G\	-ta-	.	4B-\	-ta-	.	4e-\	-ta-	.	.
4F\	-te	.	4A-\	-te	.	4B-\	-te	.	4d\	-te	.	.
=2	=2	=2	=2	=2	=2	=2	=2	=2	=2	=2	=2	=2
4.G\	Do-	.	4.B-\	Do-	.	4.B-\	Do-	.	4.e-\	Do-	.	.
8G\	-mi-	.	8B-\	-mi-	.	8e-\	-mi-	.	8B-\	-mi-	.	.
*2\right	*	*	*2\right	*	*	*2\right	*	*	*2\right	*	*	*
2G\	-no	.	2B-\	-no	.	2e-\	-no	.	2B-\	-ne	.	.
!LO:LB:g=original	!	!	!LO:LB:g=original	!	!	!LO:LB:g=original	!	!	!LO:LB:g=original	!	!	!
=3	=3	=3	=3	=3	=3	=3	=3	=3	=3	=3	=3	=3
4A-\	can-	.	4A-\	Can-	.	4c\	can-	.	4c\	can-	.	.
8AA-/	-ti-	.	8A-\	-ti-	.	8c\	-ti-	.	8f\	-ti-	.	.
8AA-/	-cum	.	8A-\	-cum	.	8c\	-cum	.	8f\	-cum	.	.
2BB-/	no-	.	(4G\	no-	.	2B-\	no-	.	(4e-\	no-	.	.
.	.	.	4F\)	.	.	.	.	.	4d\)	.	.	.
=4	=4	=4	=4	=4	=4	=4	=4	=4	=4	=4	=4	=4
!	!	!	!	!	!	!	!	!	!LO:TX:a:i:t=Solo	!	!	!
4E-\	-vum	.	4G\	-vum	.	4B-\	-vum	.	4e-\	-vum	.	.
.	.	.	.	.	.	.	.	.	.	.	.	p
4r	.	.	4r	.	.	4r	.	.	4e-\	can-	.	.
!	!	!	!	!	!	!LO:TX:b:t=V&colon;S&colon;	!	!	!	!	!	!
2r	.	.	2r	.	.	2r	.	.	8e-\L	-ta-	.	.
.	.	.	.	.	.	.	.	.	16f\L	.	.	.
.	.	.	.	.	.	.	.	.	16e-\JJ	.	.	.
.	.	.	.	.	.	.	.	.	8d\L	-te	.	.
.	.	.	.	.	.	.	.	.	8c\J	.	.	.
!	!	!	!	!	!	!LO:PB:g=original	!	!	!	!	!	!
=5	=5	=5	=5	=5	=5	=5	=5	=5	=5	=5	=5	=5
4r	.	.	4r	.	.	4r	.	.	8.c\	Do-	.	.
.	.	.	.	.	p	.	.	p	16B-\	-mi-	.	.
4D\	can-	.	4A-\	Can-	.	4B-\	can-	.	4B-\	-ne	.	.
4D\	-ta-	.	4A-\	-ta-	.	4B-\	-ta-	.	16B-\LL	[[ti]]-	can	.
.	.	.	.	.	.	.	.	.	16c\	.	.	.
.	.	.	.	.	.	.	.	.	16d\	.	.	.
.	.	.	.	.	.	.	.	.	16e-\JJ	.	.	.
4BB-\	-te	.	4A-\	-te	.	4B-\	-te	.	8f\	-ti-	.	.
.	.	.	.	.	.	.	.	.	8d\	-cum	.	.
!	!	!	!	!	!	!	!	!	!LO:LB:g=original	!	!	!
=6	=6	=6	=6	=6	=6	=6	=6	=6	=6	=6	=6	=6
4.E-\	Do-	.	4.G\	Do-	.	4.B-\	Do-	.	8e-\L	no-	.	.
.	.	.	.	.	.	.	.	.	8B-\J	.	.	.
.	.	.	.	.	.	.	.	.	8B-\	-vum	.	.
8E-\	-mi-	.	8G\	-mi-	.	8B-\	-mi-	.	8e-\	can-	.	.
4E-\	-no	.	4G\	-no	.	4B-\	-no	.	(8e-\L	-ta-	.	.
.	.	.	.	.	.	.	.	.	16f\L	.	.	.
.	.	.	.	.	.	.	.	.	16e-\JJ)	.	.	.
!LO:TX:b:t=V&colon;S&colon;	!	!	!	!	!	!	!	!	!	!	!	!
4r	.	.	4r	.	.	4r	.	.	8d\L	-te	.	.
.	.	.	.	.	.	.	.	.	8c\J	.	.	.
!LO:PB:g=original	!	!	!LO:LB:g=original	!	!	!	!	!	!	!	!	!
=7	=7	=7	=7	=7	=7	=7	=7	=7	=7	=7	=7	=7
4r	.	.	4r	.	.	4r	.	.	8c\	Do-	.	.
.	.	.	.	.	.	.	.	.	8B-\	-mi-	.	.
2D\	can-	.	2A-\	can-	.	2B-\	can-	.	4B-\	-no	.	.
.	.	.	.	.	.	.	.	.	16f\LL	can-	.	.
.	.	.	.	.	.	.	.	.	16e-\	.	.	.
.	.	.	.	.	.	.	.	.	16d\	.	.	.
.	.	.	.	.	.	.	.	.	16c\JJ	.	.	.
8D\	-ti-	.	8F\	-ti-	.	8B-\	-ti-	.	8B-/	-ti-	.	.
8D\	-cum	.	8F\	-cum	.	8B-\	-cum	.	8A-/	-cum	.	.
=8	=8	=8	=8	=8	=8	=8	=8	=8	=8	=8	=8	=8
4E-\	no-	.	4E-\	no-	.	4B-/	no-	.	4G/	no-	.	.
8E-\	-vum	.	8E-\	-vum	.	4G/	-vum	.	4E-/	-vum	.	.
8E-\	can-	.	8G\	can-	.	.	.	.	.	.	.	.
8F\L	-ta-	.	8A-\L	-ta-	.	2r	.	.	2r	.	.	.
8G\J	.	.	8B-\J	.	.	.	.	.	.	.	.	.
8A-\	-te	.	8c\	-te	.	.	.	.	.	.	.	.
8G\	can-	.	8B-\	can-	.	.	.	.	.	.	.	.
!	!	!	!	!	!	!	!	!	!LO:LB:g=original	!	!	!
=9	=9	=9	=9	=9	=9	=9	=9	=9	=9	=9	=9	=9
!	!	!	!	!	!	!LO:TX:a:t=3.	!	!	!	!	!	!
8G\L	-ta-	.	(8B-\L	-ta-	.	1r	.	.	4r	.	.	.
8F\J	.	.	8A-\J)	.	.	.	.	.	.	.	.	.
2F\	-te	.	2A-\	-te	.	.	.	.	8B-\L	can-	.	.
.	.	.	.	.	.	.	.	.	8d\J	.	.	.
.	.	.	.	.	.	.	.	.	8f\L	-ta-	.	.
.	.	.	.	.	.	.	.	.	8g\J	.	.	.
4BB-/	can-	.	4A-\	can-	.	.	.	.	8a-\	-te	.	.
.	.	.	.	.	.	.	.	.	8d\	can-	.	.
!LO:LB:g=original	!	!	!	!	!	!	!	!	!	!	!	!
=10	=10	=10	=10	=10	=10	=10	=10	=10	=10	=10	=10	=10
4E-\	-ta-	.	4G\	-ta-	.	1r	.	.	8e-\L	-ta-	.	.
.	.	.	.	.	.	.	.	.	8B-\J	.	.	.
8E-\	-te	.	8G\	-te	.	.	.	.	4B-\	-te	.	.
8E-\	can-	.	8G\	can-	.	.	.	.	.	.	.	.
!	!	!	!LO:LB:g=original	!	!	!	!	!	!	!	!	!
8F\L	-ta-	.	8A-\L	-ta-	.	.	.	.	2r	.	.	.
8G\J	.	.	8B-\J	.	.	.	.	.	.	.	.	.
8A-\	-te	.	8c\	-te	.	.	.	.	.	.	.	.
8G\	can-	.	8B-\	can-	.	.	.	.	.	.	.	.
=11	=11	=11	=11	=11	=11	=11	=11	=11	=11	=11	=11	=11
(8G\L	-ta-	.	8B-\L	-ta-	.	1r	.	.	4r	.	.	.
8F\J)	.	.	8A-\J	.	.	.	.	.	.	.	.	.
2F\	-te	.	2A-\	-te	.	.	.	.	16B-\LL	Can-	.	.
.	.	.	.	.	.	.	.	.	16c\	.	.	.
.	.	.	.	.	.	.	.	.	16d\	.	.	.
.	.	.	.	.	.	.	.	.	16e-\JJ	.	.	.
.	.	.	.	.	.	.	.	.	8f\L	-ta-	.	.
.	.	.	.	.	.	.	.	.	8g\J	.	.	.
4BB-/	can-	.	4A-\	can-	.	.	.	.	8a-\	-te	.	.
.	.	.	.	.	.	.	.	.	8d\	can-	.	.
!	!	!	!	!	!	!LO:LB:g=original	!	!	!LO:LB:g=original	!	!	!
=12	=12	=12	=12	=12	=12	=12	=12	=12	=12	=12	=12	=12
4E-\	-ta-	.	4G\	-ta-	.	2r	.	.	4e-\	-ta-	.	.
4E-\	-te	.	4G\	-te	.	.	.	.	4E-/	-te	.	.
.	.	f	.	.	f	.	.	f	.	.	.	f
4e-\	can-	.	4e-\	can-	.	4e-\	can-	.	4e-\	can-	.	.
8d\	-ti-	.	8d\	-ti-	.	8d\	-ti-	.	8d\	-ti-	.	.
8e-\	-cum	.	8e-\	-cum	.	8e-\	-cum	.	8e-\	-cum	.	.
!LO:LB:g=original	!	!	!	!	!	!	!	!	!	!	!	!
=13	=13	=13	=13	=13	=13	=13	=13	=13	=13	=13	=13	=13
4c\	no-	.	4c\	no-	.	4c\	no-	.	4c\	no-	.	.
4A-\	-vum	.	4A-\	-vum	.	4A-\	-vum	.	4A-/	vum	.	.
!	!	!	!LO:LB:g=original	!	!	!	!	!	!	!	!	!
4c\	can-	.	4c\	can-	.	4c\	can-	.	4c\	can-	.	.
8Bn\	-ti-	.	8Bn\	-ti-	.	8B\	-ti-	.	8B\	-ti-	.	.
8c\	-cum	.	8c\	-cum	.	8c\	-cum	.	8c\	-cum	.	.
=14	=14	=14	=14	=14	=14	=14	=14	=14	=14	=14	=14	=14
4A-\	no-	.	4A-\	no-	.	4A-/	no-	.	4A-/	no-	.	.
4F\	-vum	.	4F\	-vum	.	4F/	-vum	.	4F/	-vum	.	.
(8A-\L	can-	.	8A-\L	can-	.	8A-/L	can-	.	8A-/L	can-	.	.
8G\J)	.	.	8G\J	.	.	8G/J	.	.	8G/J	.	.	.
8F\	-ti-	.	8F\	-ti-	.	8F/	-ti-	.	8F/	-ti-	.	.
8E-\	-cum	.	8E-\	-cum	.	8E-/	-cum	.	8E-/	-cum	.	.
!	!	!	!	!	!	!LO:LB:g=original	!	!	!LO:LB:g=original	!	!	!
=15	=15	=15	=15	=15	=15	=15	=15	=15	=15	=15	=15	=15
4B-X\	no-	.	4B-X\	no-	.	4B-\	no-	.	[<1B-	no-	.	.
4B-\	-vum	.	4B-\	-vum	.	4B-\	-vum	.	.	.	.	.
4E-\	can-	.	4G\	can-	.	4e-\	can-	.	.	.	.	.
8E-\	-ti-	.	8G\	-ti-	.	8e-\	-ti-	.	.	.	.	.
8E-\	-cum	.	8G\	-cum	.	8e-\	-cum	.	.	.	.	.
!LO:LB:g=original	!	!	!	!	!	!	!	!	!	!	!	!
=16	=16	=16	=16	=16	=16	=16	=16	=16	=16	=16	=16	=16
4BB-/	no-	.	4F\	no-	.	4d\	no-	.	1B-]	.	.	.
4BB-/	-vum	.	4F\	-vum	.	4d\	-vum	.	.	.	.	.
!	!	!	!LO:LB:g=original	!	!	!	!	!	!	!	!	!
4E-\	can-	.	4G\	can-	.	4e-\	can-	.	.	.	.	.
8E-\	-ti-	.	8G\	-ti-	.	8e-\	-ti-	.	.	.	.	.
8E-\	-cum	.	8G\	-cum	.	8e-\	-cum	.	.	.	.	.
=17	=17	=17	=17	=17	=17	=17	=17	=17	=17	=17	=17	=17
2BB-/	no-	.	2F\	no-	.	2d\	no-	.	4B-\	-vum	.	.
.	.	.	.	.	.	.	.	.	4r	.	.	.
4BB-/	-vum	.	4F\	-vum	.	4d\	-vum	.	4r	.	.	.
!	!	!	!	!	!	!	!	!	!LO:TX:a:t=Solo	!	!	!LO:DY:t=po.
.	.	.	.	.	.	.	.	.	.	.	.	p
4r	.	.	4r	.	.	4r	.	.	8B-\L	can-	.	.
.	.	.	.	.	.	.	.	.	8d\J	.	.	.
!	!	!	!	!	!	!LO:LB:g=original	!	!	!	!	!	!
=18	=18	=18	=18	=18	=18	=18	=18	=18	=18	=18	=18	=18
!LO:TX:a:t=3.	!	!	!	!	!	!LO:TX:a:i:t=Solo	!	!	!	!	!	!
1r	.	.	4r	.	.	4r	.	.	(<4.f\	-ta-	.	.
.	.	.	.	.	.	.	.	p	.	.	.	.
.	.	.	8c\L	Can-	.	8e-\L	Can-	.	.	.	.	.
.	.	.	8Bn\J	.	.	8d\J	.	.	8g\)	.	.	.
.	.	.	4c\	-ta-	.	4e-\	-ta-	.	4f\	-te	.	.
.	.	.	4F\	-te	.	4c\	-te	.	8g\L	can-	.	.
.	.	.	.	.	.	.	.	.	8e-\J	.	.	.
=19	=19	=19	=19	=19	=19	=19	=19	=19	=19	=19	=19	=19
1r	.	.	4r	.	.	4r	.	.	8c#X\L	-ta-	.	.
.	.	.	.	.	.	.	.	.	8d\J	.	.	.
.	.	.	(8B-\L	Can-	.	8d\L	can-	.	4B-\	-te	.	.
.	.	.	8F\J)	.	.	8c\J	.	.	.	.	.	.
.	.	.	4D\	-ta-	.	4B-\	-ta-	.	4r	.	.	.
.	.	.	4D\	-te	.	4B-\	-te	.	8B-\L	can-	.	.
.	.	.	.	.	.	.	.	.	8d\J	.	.	.
!	!	!	!LO:LB:g=original	!	!	!	!	!	!LO:LB:g=original	!	!	!
=20	=20	=20	=20	=20	=20	=20	=20	=20	=20	=20	=20	=20
1r	.	.	4r	.	.	4r	.	.	4.f\	-ta-	.	.
.	.	.	8F\L	Do-	.	8A\L	Do-	.	.	.	.	.
.	.	.	8An\J	.	.	8c\J	.	.	8f\	-te	.	.
.	.	.	4.c\	.	.	4.e-^<\	.	.	8f\L	Do-	.	.
.	.	.	.	.	.	.	.	.	16a\L	.	.	.
.	.	.	.	.	.	.	.	.	16g\JJ	.	.	.
.	.	.	.	.	.	.	.	.	16f\LL	.	.	.
.	.	.	.	.	.	.	.	.	16e-\JJ	.	.	.
.	.	.	8F\	-mi-	.	8e-\	-mi-	.	16d\LL	-mi-	.	.
.	.	.	.	.	.	.	.	.	16c\JJ	.	.	.
!	!	!	!	!	!	!LO:LB:g=original	!	!	!	!	!	!
=21	=21	=21	=21	=21	=21	=21	=21	=21	=21	=21	=21	=21
4r	.	.	4B-\	-no	.	4d\	-no	.	4B-\	-no	.	.
.	.	f	.	.	f	.	.	f	.	.	.	f
4BB-/	et	.	4BB-/	et	.	4B-\	et	.	4d\	et	.	.
4C/	be-	.	4C/	be-	.	4B-\	be-	.	4e-\	be-	.	.
4D/	-ne-	.	4D/	-ne-	.	4B-\	-ne-	.	4f\	-ne-	.	.
!LO:LB:g=original	!	!	!	!	!	!	!	!	!	!	!	!
=22	=22	=22	=22	=22	=22	=22	=22	=22	=22	=22	=22	=22
4E-\	-di-	.	4E-\	-di-	.	4B-\	-di-	.	4g\	-di-	.	.
8D\	-ci-	.	8D\	-ci-	.	8B-\	-ci-	.	8f\	-ci-	.	.
8D\	-te	.	8D\	-te	.	8B-\	-te	.	8f\	-te	.	.
4C#X/	no-	.	4C#X/	no-	.	4B-\	no-	.	4e\	no-	.	.
8D/	-mi-	.	8D/	-mi-	.	8B-\	-mi-	.	8f\	-mi-	.	.
8D/	-ni	.	8D/	-ni	.	8B-\	-ne	.	8f\	-ni	.	.
!	!	!	!LO:LB:g=original	!	!	!	!	!	!LO:LB:g=original	!	!	!
=23	=23	=23	=23	=23	=23	=23	=23	=23	=23	=23	=23	=23
4BB-/	e-	.	4BB-/	e-	.	4B-\	e-	.	4d\	e-	.	.
4BB-/	-jus	.	4BB-/	-jus	.	4B-\	-jus	.	4d\	-jus	.	.
4Cn/	be-	.	4Cn/	be-	.	4B-\	be-	.	4e-X\	be-	.	.
4D/	-ne-	.	4D/	-ne-	.	4B-\	-ne-	.	4f\	-ne-	.	.
!	!	!	!	!	!	!LO:LB:g=original	!	!	!	!	!	!
=24	=24	=24	=24	=24	=24	=24	=24	=24	=24	=24	=24	=24
4E-\	-di-	.	4E-\	-di-	.	4B-\	-di-	.	4g\	-di-	.	.
!	!	!	!LO:SIC:v:l:s=-ci-	!	!	!	!	!	!	!	!	!
8D\	-ci-	.	8D\	-ti-	.	8B-\	-ci-	.	8f\	-ci-	.	.
8D\	-te	.	8D\	-te	.	8B-\	-te	.	8f\	-te	.	.
4C#X/	no-	.	4C#X/	no-	.	4B-\	no-	.	4e\	no-	.	.
8D/	-mi-	.	8D/	-mi-	.	8B-\	-mi-	.	8f\	-mi-	.	.
8D/	-ne	.	8D/	-ne	.	8B-\	-ni	.	8f\	-ne	.	.
.	.	.	.	.	.	.	.	p	.	.	.	.
!LO:LB:g=original	!	!	!	!	!	!	!	!	!	!	!	!
=25	=25	=25	=25	=25	=25	=25	=25	=25	=25	=25	=25	=25
!	!	!LO:DY:rj	!	!	!	!	!	!	!	!	!	!
2BB-/	e-	f	4BB-/	e-	.	4B-\	e-	.	(2d\	e-	.	.
.	.	.	4B-\	-jus	.	4F/	-jus	.	.	.	.	.
2BB-/	-jus	.	2r	.	.	4F/	no-	.	16e-\LL	.	.	.
.	.	.	.	.	.	.	.	.	16d\	.	.	.
.	.	.	.	.	.	.	.	.	16c\	.	.	.
.	.	.	.	.	.	.	.	.	16B-\JJ	.	.	.
.	.	.	.	.	.	8F/	-mi-	.	16A\LL	.	.	.
.	.	.	.	.	.	.	.	.	16B-\	.	.	.
.	.	.	.	.	.	8F/	-ni	.	16c\)	.	.	.
.	.	.	.	.	.	.	.	.	16d\JJ	.	.	.
!	!	!	!	!	!	!	!	!	!LO:LB:g=original	!	!	!
=26	=26	=26	=26	=26	=26	=26	=26	=26	=26	=26	=26	=26
2C/	Do-	.	4F\	e-	.	4A/	e-	.	2e-\	.	.	.
.	.	.	4F\	-jus	.	4A/	-jus	.	.	.	.	.
!	!	!	!	!	!	!LO:LB:g=original	!	!	!	!	!	!
4C/	-mi-	.	2r	.	.	4A/	no-	.	(16f\LL	.	.	.
.	.	.	.	.	.	.	.	.	16e-\	.	.	.
.	.	.	.	.	.	.	.	.	16d\	.	.	.
.	.	.	.	.	.	.	.	.	16c\JJ	.	.	.
4C/	-ne	.	.	.	.	8A/	-mi-	.	16B\LL	.	.	.
.	.	.	.	.	.	.	.	.	16c\	.	.	.
.	.	.	.	.	.	8A/	-ni	.	16d\)	.	.	.
.	.	.	.	.	.	.	.	.	16e-\JJ	.	.	.
!	!	!	!LO:LB:g=original	!	!	!	!	!	!	!	!	!
=27	=27	=27	=27	=27	=27	=27	=27	=27	=27	=27	=27	=27
!	!	!	!LO:TX:b:t=1.	!	!	!	!	!	!	!	!	!
(1D	e-	.	1r	.	.	4F/	e-	.	2f\	.	.	.
.	.	.	.	.	.	4B-\	-jus	.	.	.	.	.
.	.	.	.	.	.	4B-\	no-	.	2f#X\	.	.	.
.	.	.	.	.	.	8B-\	-mi-	.	.	.	.	.
.	.	.	.	.	.	8B-\	-ni	.	.	.	.	.
=28	=28	=28	=28	=28	=28	=28	=28	=28	=28	=28	=28	=28
2E-\	.	.	2r	.	.	(4B-\	e-	.	16a\LL	.	.	.
.	.	.	.	.	.	.	.	.	16g\	.	.	.
.	.	.	.	.	.	.	.	.	(16f\	.	.	.
.	.	.	.	.	.	.	.	.	16e-\JJ	.	.	.
.	.	.	.	.	.	4c\	.	.	16d\LL	.	.	.
.	.	.	.	.	.	.	.	.	16c\	.	.	.
.	.	.	.	.	.	.	.	.	16e-\	.	.	.
.	.	.	.	.	.	.	.	.	16c\JJ)	.	.	.
4F\)	.	.	2F\	e-	.	4d\)	.	.	4B-\	.	.	.
4FF/	.	.	.	.	.	4e-\	.	.	8d\L	.	.	.
.	.	.	.	.	.	.	.	.	8c\J	.	.	.
=29	=29	=29	=29	=29	=29	=29	=29	=29	=29	=29	=29	=29
4BB-/	-jus	.	4F\	-jus	.	4d\	-jus	.	4B-\	-jus	.	.
.	.	f	.	.	f	.	.	.	.	.	.	f
4B-\	a-	.	4B-\	a-	.	4B-\	a-	.	4d\	a-	.	.
4G\	-nun-	.	4G\	-num-	.	4B-\	-nun-	.	4e-\	-nun-	.	.
4An\	-ci-	.	4An\	-ci-	.	4A\	-ci-	.	4c#X\	-ci-	.	.
!LO:LB:g=original	!	!	!	!	!	!LO:LB:g=original	!	!	!LO:LB:g=original	!	!	!
=30	=30	=30	=30	=30	=30	=30	=30	=30	=30	=30	=30	=30
4F#X\	-a-	.	4F#X\	-a-	.	4A/	-a-	.	4d\	-a-	.	.
8G\	-te	.	8G\	-te	.	8G/	-te	.	8B-X\	-te	.	.
8G\	de	.	8G\	de	.	8G/	de-	.	8B-\	de	.	.
4E-X\	di-	.	4G\	di-	.	4G/	-di-	.	4cn\	di-	.	.
8BBn/	-e	.	8Fn\	-e	.	8G/	-e	.	8d\	-e	.	.
8BB/	in	.	8F\	in	.	8G/	in	.	8d\	in	.	.
!	!	!	!LO:LB:g=original	!	!	!	!	!	!	!	!	!
=31	=31	=31	=31	=31	=31	=31	=31	=31	=31	=31	=31	=31
4C/	di-	.	4E-X\	di-	.	4G\	di-	.	4e-\	di-	.	.
4BB-X/	-em	.	4G\	-em	.	4c\	-em	.	4e\	-em	.	.
4AAn/	sa-	.	4F\	sa-	.	4c\	sa-	.	4f\	sa-	.	.
4AA/	-lu-	.	4F\	-lu-	.	4c\	-lu-	.	4e-X\	-lu-	.	.
=32	=32	=32	=32	=32	=32	=32	=32	=32	=32	=32	=32	=32
(4BB-X/	-ta-	.	(4F\	-ta-	.	2.B-X\	-ta-	.	4d\	-ta-	.	.
4G\	.	.	4G\	.	.	.	.	.	4e-\	.	.	.
4F\)	.	.	4F\	.	.	.	.	.	4f\	.	.	.
4E-X\	-re	.	4E-X\)	re	.	4B-\	-re	.	4g\	-re	.	.
!	!	!	!	!	!	!	!	!	!LO:LB:g=original	!	!	!
=33	=33	=33	=33	=33	=33	=33	=33	=33	=33	=33	=33	=33
!	!	!LO:DY:rj	!	!	!LO:DY:rj	!	!	!LO:DY:rj	!	!	!	!
1En	e-	p	1G	e-	p	1B-	e-	p	(2.c\	e-	.	.
.	.	.	.	.	.	.	.	.	8d\L	.	.	.
.	.	.	.	.	.	.	.	.	8c\J)	.	.	.
!LO:LB:g=original	!	!	!	!	!	!LO:LB:g=original	!	!	!	!	!	!
=34	=34	=34	=34	=34	=34	=34	=34	=34	=34	=34	=34	=34
4F\	-jus	.	4F\	-jus	.	4A/	-jus	.	4c\	-jus	.	.
2E-X^\	sa-	.	4r	.	.	2A^>/	sa-	.	2c^\	Sa-	.	.
.	.	.	2r	.	.	.	.	.	.	.	.	.
4E-\	-lu-	.	.	.	.	4c\	-lu-	.	8d\L	-lu-	.	.
.	.	.	.	.	.	.	.	.	8e-\J	.	.	.
=35	=35	=35	=35	=35	=35	=35	=35	=35	=35	=35	=35	=35
!	!	!	!LO:TX:b:t=2.	!	!	!	!	!	!	!	!	!
2D\	-ta-	.	1r	.	.	(4F/	-ta-	.	4f\	-ta-	.	.
.	.	.	.	.	.	2B-\)	.	.	4f#X\	.	.	.
2E-\	-re	.	.	.	.	.	.	.	8a\L	.	.	.
.	.	.	.	.	.	.	.	.	8g\J	.	.	.
.	.	.	.	.	.	4c\	-re	.	8e-\L	-re	.	.
.	.	.	.	.	.	.	.	.	8c\J	.	.	.
=36	=36	=36	=36	=36	=36	=36	=36	=36	=36	=36	=36	=36
2F\	e-	.	1r	.	.	(2d\	e-	.	(2B-\	e-	.	.
2FF/	.	.	.	.	.	4f\	.	.	4d\	.	.	.
.	.	.	.	.	.	4e-\)	.	.	4c\)	.	.	.
!	!	!	!LO:LB:g=original	!	!	!	!	!	!LO:LB:g=original	!	!	!
=37	=37	=37	=37	=37	=37	=37	=37	=37	=37	=37	=37	=37
4BB-/	-jus	.	4r	.	.	4d\	-jus	.	4B-\	-jus	.	.
.	.	.	.	.	p	.	.	.	.	.	.	.
(8BB-/L	an-	.	(8D\L	a-	.	4r	.	.	4r	.	.	.
8C/J)	.	.	8E-\J)	.	.	.	.	.	.	.	.	.
(8C/L	-nun-	.	(8E-\L	-nun-	.	2r	.	.	2r	.	.	.
8D/J)	.	.	8F\J)	.	.	.	.	.	.	.	.	.
8D\L	-ci-	.	(8F\L	-ci-	.	.	.	.	.	.	.	.
8E-\J	.	.	8G\J)	.	.	.	.	.	.	.	.	.
=38	=38	=38	=38	=38	=38	=38	=38	=38	=38	=38	=38	=38
!	!	!	!	!	!	!LO:TX:b:t=5.	!	!	!	!	!	!
1E-	-a-	.	(2G\	-a-	.	00r	.	.	4r	.	.	.
.	.	.	.	.	.	.	.	.	4B-/	a-	.	.
.	.	.	2G-X\)	.	.	.	.	.	4A/	-nun-	.	.
.	.	.	.	.	.	.	.	.	4A/	-ci-	.	.
!LO:LB:g=original	!	!	!	!	!	!	!	!	!	!	!	!
=39	=39	=39	=39	=39	=39	=39	=39	=39	=39	=39	=39	=39
4D\	-te	.	4F\	-te	.	.	.	.	8c/L	-a-	.	.
.	.	.	.	.	.	.	.	.	8B-/J	.	.	.
(8BB-/L	de	.	(8D\L	de	.	.	.	.	4B-/	te	.	.
8C/J)	.	.	8E-\J)	.	.	.	.	.	.	.	.	.
(8C/L	di-	.	(8E-\L	di-	.	.	.	.	2r	.	.	.
8D/J)	.	.	8F\J)	.	.	.	.	.	.	.	.	.
(8D\L	-e	.	(8F\L	-e	.	.	.	.	.	.	.	.
8E-\J)	.	.	8F#X\J)	.	.	.	.	.	.	.	.	.
!	!	!	!	!	!	!	!	!	!LO:PB:g=original	!	!	!
=40	=40	=40	=40	=40	=40	=40	=40	=40	=40	=40	=40	=40
4.E-\	sa-	.	4.G\	sa-	.	.	.	.	4r	.	.	.
.	.	.	.	.	.	.	.	.	8B-/	sa-	.	.
8E-\	-lu-	.	8G\	-lu-	.	.	.	.	8B-/	-lu-	.	.
4E-\	-ta-	.	4G-X\	-ta-	.	.	.	.	4A/	-ta-	.	.
4E-\	-re	.	4G-\	-re	.	.	.	.	4A/	-re	.	.
!	!	!	!LO:PB:g=original	!	!	!	!	!	!	!	!	!
=41	=41	=41	=41	=41	=41	=41	=41	=41	=41	=41	=41	=41
*	*	*	*	*	*	*	*	*	*Xtuplet	*	*	*
(4D\	e-	.	(4F\	e-	.	.	.	.	12B-/L	e-	.	.
.	.	.	.	.	.	.	.	.	12c/	.	.	.
.	.	.	.	.	.	.	.	.	12B-/J	.	.	.
!	!	!	!LO:TUP:a:problem:klamra łukowa	!	!	!	!	!	!	!	!	!
4E-\	.	.	12G-X\L	.	.	.	.	.	4A/	.	.	.
.	.	.	12F\	.	.	.	.	.	.	.	.	.
.	.	.	12G-\J	.	.	.	.	.	.	.	.	.
4D\	.	.	4F\	.	.	.	.	.	12B-/L	.	.	.
.	.	.	.	.	.	.	.	.	12c/	.	.	.
.	.	.	.	.	.	.	.	.	12B-/J	.	.	.
!	!	!	!LO:TUP:a:problem:klamra łukowa	!	!	!	!	!	!	!	!	!
4E-\)	.	.	12G-\L	.	.	.	.	.	4A/	.	.	.
.	.	.	12F\	.	.	.	.	.	.	.	.	.
.	.	.	12G-\J)	.	.	.	.	.	.	.	.	.
=42	=42	=42	=42	=42	=42	=42	=42	=42	=42	=42	=42	=42
2.D/	.	.	1F	.	.	1r	.	.	2.B-\	.	.	.
4BB-/	.	.	.	.	.	.	.	.	4d\	.	.	.
!LO:LB:g=original	!	!	!	!	!	!	!	!	!	!	!	!
=43	=43	=43	=43	=43	=43	=43	=43	=43	=43	=43	=43	=43
1BB-;	-jus	.	1D;	-jus	.	1r;	.	.	1B-;	jus	.	.
!	!	!	!	!	!	!LO:LB:g=original	!	!	!LO:LB:g=original	!	!	!
=44|!	=44|!	=44|!	=44|!	=44|!	=44|!	=44|!	=44|!	=44|!	=44|!	=44|!	=44|!	=44|!
4r	.	.	4r	.	.	4r	.	.	4r	.	.	.
.	.	f	.	.	f	.	.	f	.	.	.	f
4E-\	Can-	.	4G\	Can-	.	4B-\	Can-	.	4B-\	Can-	.	.
4E-\	-ta-	.	4G\	-ta-	.	4B-\	-ta-	.	4e-\	-ta-	.	.
4F\	-te	.	4A-\	-te	.	4B-\	-te	.	4d\	-te	.	.
=45	=45	=45	=45	=45	=45	=45	=45	=45	=45	=45	=45	=45
4.G\	Do-	.	4.B-\	Do-	.	4.B-\	Do-	.	4.e-\	Do-	.	.
8G\	-mi-	.	8B-\	-mi-	.	8e-\	-mi-	.	8B-\	-mi-	.	.
2G\	-no	.	2B-\	-no	.	2e-\	-no	.	2B-\	-ne	.	.
!	!	!	!LO:LB:g=original	!	!	!	!	!	!	!	!	!
=46	=46	=46	=46	=46	=46	=46	=46	=46	=46	=46	=46	=46
4A-\	can-	.	4A-\	can-	.	4c	can-	.	4c\	can-	.	.
8AA-/	-ti-	.	8A-\	-ti-	.	8c\	-ti-	.	8f\	-ti-	.	.
8AA-/	-cum	.	8A-\	-cum	.	8c	-cum	.	8f\	-cum	.	.
2BB-/	no-	.	(4G\	no-	.	2B-\	no-	.	(<4e-\	no-	.	.
.	.	.	4F\)	.	.	.	.	.	4d\)	.	.	.
!	!	!	!	!	!	!	!	!	!LO:LB:g=original	!	!	!
=47	=47	=47	=47	=47	=47	=47	=47	=47	=47	=47	=47	=47
4E-\	-vum	.	4G\	-vum	.	4B-\	-vum	.	4e-\	-vum	.	.
!	!	!	!	!	!	!	!	!	!LO:TX:b:i:t=solo	!	!	!
.	.	.	.	.	.	.	.	.	.	.	.	p
4r	.	.	4r	.	.	4r	-vum	.	4e-\	can-	.	.
2r	.	.	2r	.	.	2r	.	.	8e-\L	-ta-	.	.
.	.	.	.	.	.	.	.	.	16f\L	.	.	.
.	.	.	.	.	.	.	.	.	16e-\JJ	.	.	.
.	.	.	.	.	.	.	.	.	8d\L	-te	.	.
.	.	.	.	.	.	.	.	.	8c\J	.	.	.
!LO:LB:g=original	!	!	!	!	!	!LO:LB:g=original	!	!	!	!	!	!
=48	=48	=48	=48	=48	=48	=48	=48	=48	=48	=48	=48	=48
4r	.	.	4r	.	.	4r	.	.	8.c\	Do-	.	.
.	.	p	.	.	p	.	.	p	16B-\	-mi-	.	.
4D/	Can-	.	4A-\	Can-	.	4B-\	Can-	.	4B-\	-no	.	.
4D/	-ta-	.	4A-\	-ta-	.	4B-\	-ta-	.	16B-\LL	Can-	.	.
.	.	.	.	.	.	.	.	.	16c\	.	.	.
.	.	.	.	.	.	.	.	.	16d\	.	.	.
.	.	.	.	.	.	.	.	.	16e-\JJ	.	.	.
4BB-/	-te	.	4A-\	-te	.	4B-\	-te	.	8f\	-ti-	.	.
.	.	.	.	.	.	.	.	.	8d\	-cum	.	.
=49	=49	=49	=49	=49	=49	=49	=49	=49	=49	=49	=49	=49
4.E-\	Do-	.	4.G\	Do-	.	4.B-\	Do-	.	8e-\L	no-	.	.
.	.	.	.	.	.	.	.	.	8B-\J	.	.	.
.	.	.	.	.	.	.	.	.	8B-\	-vum	.	.
8E-\	-mi-	.	8G\	-mi-	.	8B-\	-mi-	.	8e-\	can-	.	.
!	!	!	!	!	!	!	!	!	!LO:LB:g=original	!	!	!
4E-\	-no	.	4G\	-no	.	4B-\	-no	.	8e-\L	-ta-	.	.
.	.	.	.	.	.	.	.	.	16f\L	.	.	.
.	.	.	.	.	.	.	.	.	16e-\JJ	.	.	.
4r	.	.	4r	.	.	4r	.	.	8d\L	-te	.	.
.	.	.	.	.	.	.	.	.	8c\J	.	.	.
!	!	!	!LO:LB:g=original	!	!	!	!	!	!	!	!	!
=50	=50	=50	=50	=50	=50	=50	=50	=50	=50	=50	=50	=50
4r	.	.	4r	.	.	4r	.	.	8c\	Do-	.	.
.	.	.	.	.	.	.	.	.	8B-\	-mi-	.	.
2D\	Can-	.	2A-\	Can-	.	2B-\	can-	.	4B-\	-no	.	.
.	.	.	.	.	.	.	.	.	16f\LL	can-	.	.
.	.	.	.	.	.	.	.	.	16e-\	.	.	.
.	.	.	.	.	.	.	.	.	16d\	.	.	.
.	.	.	.	.	.	.	.	.	16c\JJ	.	.	.
8D\	-ti-	.	8F\	-ti-	.	8B-\	-ti-	.	8B-/	-ti-	.	.
8D\	-cum	.	8F\	-cum	.	8B-\	-cum	.	8A-/	-cum	.	.
!LO:PB:g=original	!	!	!	!	!	!	!	!	!	!	!	!
=51	=51	=51	=51	=51	=51	=51	=51	=51	=51	=51	=51	=51
4E-\	no-	.	4E-\	no-	.	4B-\	no-	.	4G/	no-	.	.
8E-\	-vum	.	8E-\	-vum	.	4G\	-vum	.	4E-/	-vum	.	.
8E-\	can-	.	8G\	can-	.	.	.	.	.	.	.	.
8F\L	-ta-	.	8A-\L	-ta-	.	2r	.	.	2r	.	.	.
8G\J	.	.	8B-\J	.	.	.	.	.	.	.	.	.
8A-\	-te	.	8c\	-te	.	.	.	.	.	.	.	.
8G\	can-	.	8B-\	can-	.	.	.	.	.	.	.	.
!	!	!	!	!	!	!LO:LB:g=original	!	!	!	!	!	!
=52	=52	=52	=52	=52	=52	=52	=52	=52	=52	=52	=52	=52
!	!	!	!	!	!	!LO:TX:a:t=3.	!	!	!	!	!	!
8G\L	-ta-	.	8B-\L	-ta-	.	1r	.	.	4r	.	.	.
8F\J	.	.	8A-\J	.	.	.	.	.	.	.	.	.
2F\	-te	.	2A-\	-te	.	.	.	.	8B-\L	Can-	.	.
.	.	.	.	.	.	.	.	.	8d\J	.	.	.
.	.	.	.	.	.	.	.	.	8f\L	ta-	.	.
.	.	.	.	.	.	.	.	.	8g\J	.	.	.
4BB-/	can-	.	4A-\	can-	.	.	.	.	8a-\	-te	.	.
.	.	.	.	.	.	.	.	.	8d\	can-	.	.
!	!	!	!LO:LB:g=original	!	!	!	!	!	!LO:LB:g=original	!	!	!
=53	=53	=53	=53	=53	=53	=53	=53	=53	=53	=53	=53	=53
4E-\	-ta-	.	4G\	-ta-	.	1r	.	.	8e-\L	-ta-	.	.
.	.	.	.	.	.	.	.	.	8B-\J	.	.	.
8E-\	-te	.	8G\	-te	.	.	.	.	4B-\	-te	.	.
8E-\	can-	.	8G\	can-	.	.	.	.	.	.	.	.
(8F\L	-ta-	.	8A-\L	-ta-	.	.	.	.	2r	.	.	.
8G\J)	.	.	8B-\J	.	.	.	.	.	.	.	.	.
8A-\	-te	.	8c\	-te	.	.	.	.	.	.	.	.
8G\	can-	.	8B-X\	can-	.	.	.	.	.	.	.	.
!LO:LB:g=original	!	!	!	!	!	!	!	!	!	!	!	!
=54	=54	=54	=54	=54	=54	=54	=54	=54	=54	=54	=54	=54
(8G\L	-ta-	.	8B-\L	-ta-	.	1r	.	.	4r	.	.	.
8F\J)	.	.	8A-\J	.	.	.	.	.	.	.	.	.
2F\	-te	.	2A-\	-te	.	.	.	.	16B-\LL	Can-	.	.
.	.	.	.	.	.	.	.	.	16c\	.	.	.
.	.	.	.	.	.	.	.	.	16d\	.	.	.
.	.	.	.	.	.	.	.	.	16e-\JJ	.	.	.
.	.	.	.	.	.	.	.	.	8f\L	-ta-	.	.
.	.	.	.	.	.	.	.	.	8g\J	.	.	.
4BB-/	can-	.	4A-\	can-	.	.	.	.	8a-\	-te	.	.
.	.	.	.	.	.	.	.	.	8d\	can-	.	.
=55	=55	=55	=55	=55	=55	=55	=55	=55	=55	=55	=55	=55
4E-\	-ta-	.	4G\	-ta-	.	2r	.	.	4e-\	-ta-	.	.
4E-\	-te	.	4G\	-te	.	.	.	.	4E-/	-te	.	.
.	.	f	.	.	f	.	.	f	.	.	.	f
4e-\	can-	.	4e-\	can-	.	4e-\	can-	.	4e-\	can-	.	.
8d\	-ti-	.	8d\	-ti-	.	8d\	-ti-	.	8d\	-ti-	.	.
8e-\	-cum	.	8e-\	-cum	.	8e-\	-cum	.	8e-\	-cum	.	.
!	!	!	!LO:LB:g=original	!	!	!	!	!	!LO:LB:g=original	!	!	!
=56	=56	=56	=56	=56	=56	=56	=56	=56	=56	=56	=56	=56
4c\	no-	.	4c\	no-	.	4c\	no-	.	4c\	no-	.	.
4A-\	-vum	.	4A-\	-vum	.	4A-\	-vum	.	4A-\	-vum	.	.
4c\	can-	.	4c\	can-	.	4c\	can-	.	4c\	can-	.	.
8Bn\	-ti-	.	8Bn\	-ti-	.	8B\	-ti-	.	8B\	-ti-	.	.
8c\	-cum	.	8c\	-cum	.	8c\	-cum	.	8c\	-cum	.	.
=57	=57	=57	=57	=57	=57	=57	=57	=57	=57	=57	=57	=57
4A-\	no-	.	4A-\	no-	.	4A-/	no-	.	4A-/	no-	.	.
4F\	-vum	.	4F\	-vum	.	4F/	-vum	.	4F/	-vum	.	.
!LO:LB:g=original	!	!	!	!	!	!LO:PB:g=original	!	!	!	!	!	!
8A-\L	can-	.	8A-\L	can-	.	8A-/L	can-	.	8A-/L	can-	.	.
8G\J	.	.	8G\J	.	.	8G/J	.	.	8G/J	.	.	.
8F\	-ti-	.	8F\	-ti-	.	8F/	-ti-	.	8F/	-ti-	.	.
8E-\	-cum	.	8E-\	-cum	.	8E-/	-cum	.	8E-/	-cum	.	.
=58	=58	=58	=58	=58	=58	=58	=58	=58	=58	=58	=58	=58
4B-\	no-	.	4B-\	no-	.	4B-\	no-	.	[1B-	no-	.	.
4B-\	-vum	.	4B-\	-vum	.	4B-\	-vum	.	.	.	.	.
4E-\	can-	.	4G\	can-	.	4e-\	can-	.	.	.	.	.
8E-\	-ti-	.	8G\	-ti-	.	8e-\	-ti-	.	.	.	.	.
8E-\	-cum	.	8G\	-cum	.	8e-\	-cum	.	.	.	.	.
!	!	!	!LO:LB:g=original	!	!	!	!	!	!	!	!	!
=59	=59	=59	=59	=59	=59	=59	=59	=59	=59	=59	=59	=59
4BB-/	no-	.	4F\	no-	.	4d\	no-	.	1B-]	.	.	.
4BB-/	-vum	.	4F\	-vum	.	4d\	-vum	.	.	.	.	.
4E-\	can-	.	4G\	can-	.	4e-\	can-	.	.	.	.	.
8E-\	-ti-	.	8G\	-ti-	.	8e-\	-ti-	.	.	.	.	.
8E-\	-cum	.	8G\	-cum	.	8e-\	-cum	.	.	.	.	.
!	!	!	!	!	!	!LO:LB:g=original	!	!	!LO:LB:g=original	!	!	!
=60	=60	=60	=60	=60	=60	=60	=60	=60	=60	=60	=60	=60
2BB-/	no-	.	2F\	no-	.	2d\	no-	.	4B-\	-vum	.	.
.	.	.	.	.	.	.	.	.	4r	.	.	.
!	!	!	!	!	!	!	!	!	!LO:TX:a:i:t=Solo	!	!	!
4BB-/	-vum	.	4F\	-vum	.	4d\	-vum	.	4r	.	.	.
4r	.	.	4r	.	.	4r	.	.	8B-\L	Can-	.	.
.	.	.	.	.	.	.	.	.	8d\J	.	.	.
!LO:LB:g=original	!	!	!	!	!	!	!	!	!	!	!	!
=61	=61	=61	=61	=61	=61	=61	=61	=61	=61	=61	=61	=61
!	!	!LO:DY:a	!	!	!	!	!	!	!	!	!	!
4r	.	p	4r	.	.	4r	.	.	(<4.f\	-ta-	.	.
.	.	.	.	.	p	.	.	p	.	.	.	.
4BB-/	Can-	.	4F\	Can-	.	4A-X/	can-	.	.	.	.	.
.	.	.	.	.	.	.	.	.	8e-\)	.	.	.
4BB-/	-ta-	.	4F\	-ta-	.	4A-/	-ta-	.	4d\	-te	.	.
8BB-/	-te	.	8F\	-te	.	8A-/	-te	.	8c\L	can-	.	.
8BB-/	Can-	.	8F\	Can-	.	8A-/	can-	.	8B-\J	.	.	.
!	!	!	!LO:LB:g=original	!	!	!	!	!	!	!	!	!
=62	=62	=62	=62	=62	=62	=62	=62	=62	=62	=62	=62	=62
2E-\	-ta-	.	(4.E-\	-ta-	.	(4.B-X/	-ta-	.	(<4.g\	-ta-	.	.
.	.	.	8B-\)	.	.	8A-/)	.	.	8f\)	.	.	.
4E-\	-te	.	4B-\	-te	.	4G/	-te	.	4e-\	-te	.	.
.	.	f	.	.	f	.	.	f	.	.	.	f
(4GG/	can-	.	4B-\	can-	.	(4B-\	can-	.	4e-\	can-	.	.
!	!	!	!	!	!	!LO:LB:g=original	!	!	!	!	!	!
=63	=63	=63	=63	=63	=63	=63	=63	=63	=63	=63	=63	=63
!	!	!	!	!	!	!	!	!	!LO:TX:a:t=P:problem:łuk dopisany ołówkiem	!	!	!
4AA-/)	.	.	4A-\	.	.	4c\)	.	.	(4e-\	-ti-	.	.
8AAn/	-ti-	.	8c\	-ti-	.	8c\	-ti-	.	8f\)	.	.	.
8AA/	-cum	.	8c\	-cum	.	8c\	-cum	.	8f\	-cum	.	.
4BB-/	no-	.	4B-\	no-	.	4d\	no-	.	4f\	no-	.	.
4BBn/	-vum	.	4d\	-vum	.	4d\	-vum	.	4g\	-vum	.	.
!	!	!	!	!	!	!	!	!	!LO:LB:g=original	!	!	!
=64	=64	=64	=64	=64	=64	=64	=64	=64	=64	=64	=64	=64
!	!	!LO:DY:rj	!	!	!LO:DY:rj	!	!	!LO:DY:rj	!	!	!	!LO:DY:rj
2C/	can-	ff	2c\	can-	ff	2e\	can-	ff	2g\	can-	.	ff
4C/	-ti-	.	4c\	-ti-	.	4e\	-ti-	.	4g\	-ti-	.	.
4C/	-cum	.	4c\	-cum	.	4e\	-cum	.	4g\	-cum	.	.
!LO:LB:g=original	!	!	!	!	!	!	!	!	!	!	!	!
=65	=65	=65	=65	=65	=65	=65	=65	=65	=65	=65	=65	=65
2FF/	no-	.	2c\	no-	.	2f\	no-	.	2a-\	no-	.	.
!	!	!	!LO:LB:g=original	!	!	!	!	!	!	!	!	!
4AA-/	-vum	.	4A-\	-vum	.	4c\	-vum	.	4f\	-vum	.	.
4AA-/	can-	.	4A-\	can-	.	4c\	can-	.	4f\	can-	.	.
=66	=66	=66	=66	=66	=66	=66	=66	=66	=66	=66	=66	=66
4BB-/	-ta-	.	4G\	-ta-	.	4B-\	-ta-	.	4e-X\	-ta-	.	.
8BB-/	-te	.	8G\	-te	.	8B-\	-te	.	8e-\	-te	.	.
8BB-/	can-	.	8G\	can-	.	8B-\	can-	.	8e-\	can-	.	.
!	!	!	!	!	!	!LO:LB:g=original	!	!	!	!	!	!
2BB-/	-ta-	.	2F\	-ta-	.	2B-\	-ta-	.	8d\L	-ta-	.	.
.	.	.	.	.	.	.	.	.	16e-\L	.	.	.
.	.	.	.	.	.	.	.	.	16d\JJ	.	.	.
.	.	.	.	.	.	.	.	.	8c\L	.	.	.
.	.	.	.	.	.	.	.	.	8d\J	.	.	.
!	!	!	!	!	!	!	!	!	!LO:LB:g=original	!	!	!
=67	=67	=67	=67	=67	=67	=67	=67	=67	=67	=67	=67	=67
4E-\	-te	.	4G\	-te	.	4B-\	-te	.	4e-\	-te	.	.
4E-\	can-	.	4E-\	can-	.	4G/	can-	.	4B-\	can-	.	.
4E-\	-ta-	.	4G\	-ta-	.	4B-/	-ta-	.	4e-\	-ta-	.	.
4E-\	-te	.	4B-\	-te	.	4e-\	-te	.	4g\	-te	.	.
=68	=68	=68	=68	=68	=68	=68	=68	=68	=68	=68	=68	=68
!	!	!LO:DY:rj	!	!	!LO:DY:rj	!	!	!LO:DY:rj	!	!	!	!LO:DY:rj
2C/	can-	ff	2c\	can-	ff	2e\	can-	ff	2g\	can-	.	ff
4C/	-ti-	.	4c\	-ti-	.	4e\	-ti-	.	4g\	-ti-	.	.
4C/	-cum	.	4c\	-cum	.	4e\	-cum	.	4g\	-cum	.	.
!LO:LB:g=original	!	!	!LO:LB:g=original	!	!	!	!	!	!	!	!	!
=69	=69	=69	=69	=69	=69	=69	=69	=69	=69	=69	=69	=69
2FF/	no-	.	2c\	no-	.	2f\	no-	.	2a-\	no-	.	.
4AA-/	-vum	.	4A-\	-vum	.	4c\	-vum	.	4f\	-vum	.	.
4AA-/	can-	.	4A-\	can-	.	4c\	can-	.	4f\	can-	.	.
!	!	!	!	!	!	!LO:LB:g=original	!	!	!	!	!	!
=70	=70	=70	=70	=70	=70	=70	=70	=70	=70	=70	=70	=70
4BB-/	-ta-	.	4G\	-ta-	.	4B-\	-ta-	.	4e-X\	-ta-	.	.
8BB-/	-te	.	8G\	-te	.	8B-\	-te	.	8e-\	-te	.	.
8BB-/	can-	.	8G\	can-	.	8B-\	can-	.	8e-\	can-	.	.
2BB-/	-ta-	.	2F\	-ta-	.	2B-\	-ta-	.	8d\L	-ta-	.	.
.	.	.	.	.	.	.	.	.	16e-\L	.	.	.
.	.	.	.	.	.	.	.	.	16d\JJ	.	.	.
.	.	.	.	.	.	.	.	.	8c\L	.	.	.
.	.	.	.	.	.	.	.	.	8d\J	.	.	.
!	!	!	!	!	!	!	!	!	!LO:LB:g=original	!	!	!
=71	=71	=71	=71	=71	=71	=71	=71	=71	=71	=71	=71	=71
4E-\	-te	.	4G\	-te	.	4B-\	-te	.	4e-\	-te	.	.
4r	.	.	4r	.	.	4r	.	.	4r	.	.	.
4B-\	Can-	.	4B-\	Can-	.	4d\	can-	.	4f\	can-	.	.
8B-\	-ti-	.	8B-\	-ti-	.	8d\	-ti-	.	8f\	-ti-	.	.
8B-\	-cum	.	8B-\	-cum	.	8d\	-cum	.	8f\	-cum	.	.
=72	=72	=72	=72	=72	=72	=72	=72	=72	=72	=72	=72	=72
4E-\	no-	.	4B-\	no-	.	4e-\	no-	.	4g\	no-	.	.
4E-\	-vum	.	4B-\	-vum	.	4e-\	-vum	.	4g\	-vum	.	.
!LO:LB:g=original	!	!	!	!	!	!	!	!	!	!	!	!
4BB-/	can-	.	4A-\	can-	.	4d\	can-	.	4f\	can-	.	.
8BB-/	-ti-	.	8A-\	-ti-	.	8d\	-ti-	.	8f\	-ti-	.	.
8BB-/	-cum	.	8A-\	-cum	.	8d\	-cum	.	8f\	-cum	.	.
!	!	!	!LO:LB:g=original	!	!	!LO:LB:g=original	!	!	!	!	!	!
=73	=73	=73	=73	=73	=73	=73	=73	=73	=73	=73	=73	=73
1E-	no-	.	1G	no-	.	1B-	no-	.	1e-	no-	.	.
!	!	!	!	!	!	!	!	!	!LO:LB:g=original	!	!	!
=74	=74	=74	=74	=74	=74	=74	=74	=74	=74	=74	=74	=74
4E-\	-vum	.	4G\	-vum	.	4B-\	-vum	.	4e-\	-vum	.	.
4e-\	can-	.	4e-\	can-	.	4e-\	can-	.	4e-\	can-	.	.
4e-\	-ta-	.	4e-\	-ta-	.	4e-\	-ta-	.	4e-\	-ta-	.	.
8e-\	-te	.	8e-\	-te	.	8e-\	-te	.	8e-\	-te	.	.
8e-\	can-	.	8e-\	can-	.	8e-\	can-	.	8e-\	can-	.	.
=75	=75	=75	=75	=75	=75	=75	=75	=75	=75	=75	=75	=75
1e-	-ta-	.	1e-	-ta-	.	1e-	-ta-	.	1e-	-ta-	.	.
=76	=76	=76	=76	=76	=76	=76	=76	=76	=76	=76	=76	=76
4E-\	-te	.	4E-\	-te.	.	4E-/	-te	.	4E-/	-te.	.	.
4r	.	.	4r	.	.	4r	.	.	4r	.	.	.
!	!	!	!LO:TX:b:i:t=Sanctus V&colon;S&colon;	!	!	!	!	!	!	!	!	!
2r;	.	.	2r	.	.	2r;	.	.	2r;	.	.	.
==	==	==	==	==	==	==	==	==	==	==	==	==
*-	*-	*-	*-	*-	*-	*-	*-	*-	*-	*-	*-	*-
!!!system-decoration: [(s1,s2,s3,s4)]
!!!RDF**kern: > = above
!!!RDF**kern: < = below
!!!AIN: 2 empty 2 tenor
!!!ENC: Marta Lawrence
!!!END: 2021-03-26
!!!ENC: Berenika Jozajtis
!!!END: 2021-03-05
